X: 156
T: Stirling Castle
R:Strathspey
C:Professor Bannatyne
S:session playing
Z:Juergen.Gier@post.rwth-aachen.de
M:4/4
L:1/8
K:D
D2F>A D>A F<A|A,2 C>E A,>E C<E|\
D2F>A D>A F<A|1(3Bcd (3efg (3fed (3cBA :|2\
(3Bcd (3efg f<d d|]A|d2 f>d g>e f>d|\
B2 c>d (3efd (3cBA|d2 f>d g>e f>d|\
(3Bcd (3efg f<d d>A|d2 f>d g>e f<d|\
B2 c>d (3efd (3cBA|(3fga (3gfe (3dcB (3AGF|\
(3GAB (3ABc (3dAG (3FGE|]


